!!!OTL: Yao chuan diao
!!!ARE: Asia, China,ÿTaiwan, Xinzhu, Miaoli, Taoyuan
!! IV, 633
!!!SCT: C1703
!!!YEM: Copyright 1995, estate of Helmut Schaffrath.
**kern
*ICvox
*Ivox
*M4/4
*k[f#]
*G:
{4g
4a
8b
4.dd
=1
8g
8e
8g
8a
8b
4b
8r}
=2
{4a
4dd
8a
8b
8a
8g
=3
8.a
16b
8d
8e
4.g
8r}
=4
{4g
4a
8b
4.dd
=5
8g
8e
8g
8a
8b
4b
8r}
=6
{4a
4dd
8a
8b
8a
8g
=7
8.a
16b
8d
8e
4g
8g
8e}
=8
{8d
8d
8e
8g
8d
8d
4r
=9
8g
8g
8d
8e
8g
8g
4r}
=10
{4dd
8a
8b
8dd
8ee
8dd
8b
=11
8a
8b
8d
8e
8g
4.g}
==
!!!AGN: Xiaodiao. Caimi
!!!AMT: simple quadruple
!!!AIN: vox
!!!EED: Helmut Schaffrath
!!!EEV: 1.0
*-
